Numix-GalliumOS/32/actions/filter-note-unfiled.svg

<?xml version="1.0" encoding="UTF-8" standalone="no"?>
<svg
   xmlns:dc="http://purl.org/dc/elements/1.1/"
   xmlns:cc="http://creativecommons.org/ns#"
   xmlns:rdf="http://www.w3.org/1999/02/22-rdf-syntax-ns#"
   xmlns:svg="http://www.w3.org/2000/svg"
   xmlns="http://www.w3.org/2000/svg"
   xmlns:sodipodi="http://sodipodi.sourceforge.net/DTD/sodipodi-0.dtd"
   xmlns:inkscape="http://www.inkscape.org/namespaces/inkscape"
   viewBox="0 0 32 32"
   id="svg2"
   version="1.1"
   inkscape:version="0.91 r13725"
   sodipodi:docname="filter-note-unfiled.svg"
   width="32"
   height="32">
  <metadata
     id="metadata98">
    <rdf:RDF>
      <cc:Work
         rdf:about="">
        <dc:format>image/svg+xml</dc:format>
        <dc:type
           rdf:resource="http://purl.org/dc/dcmitype/StillImage" />
        <dc:title></dc:title>
      </cc:Work>
    </rdf:RDF>
  </metadata>
  <sodipodi:namedview
     pagecolor="#ffffff"
     bordercolor="#666666"
     borderopacity="1"
     objecttolerance="10"
     gridtolerance="10"
     guidetolerance="10"
     inkscape:pageopacity="0"
     inkscape:pageshadow="2"
     inkscape:window-width="1366"
     inkscape:window-height="704"
     id="namedview96"
     showgrid="false"
     inkscape:zoom="1"
     inkscape:cx="3.2772051"
     inkscape:cy="14.98839"
     inkscape:window-x="0"
     inkscape:window-y="27"
     inkscape:window-maximized="1"
     inkscape:current-layer="svg2">
    <inkscape:grid
       type="xygrid"
       id="grid4360" />
  </sodipodi:namedview>
  <defs
     id="defs4">
    <path
       id="SVGCleanerId_0"
       d="m 14,12 20,0 c 1.105,0 2,0.895 2,2 l 0,20 c 0,1.105 -0.895,2 -2,2 l -20,0 c -1.105,0 -2,-0.895 -2,-2 l 0,-20 c 0,-1.105 0.895,-2 2,-2 m 0,0"
       inkscape:connector-curvature="0" />
  </defs>
  <g
     id="g34"
     transform="matrix(2,0,0,2,0,-66)" />
  <rect
     ry="4"
     rx="4"
     y="2"
     x="4"
     height="28"
     width="24"
     id="rect4174"
     style="opacity:1;fill:#e5e1c7;fill-opacity:1;stroke:none;stroke-width:3;stroke-linecap:round;stroke-linejoin:round;stroke-miterlimit:4;stroke-dasharray:none;stroke-opacity:1" />
  <rect
     style="opacity:1;fill:#eae7d1;fill-opacity:1;stroke:none;stroke-width:3;stroke-linecap:round;stroke-linejoin:round;stroke-miterlimit:4;stroke-dasharray:none;stroke-opacity:1"
     id="rect4186"
     width="20"
     height="24"
     x="6"
     y="4"
     rx="2"
     ry="2" />
  <rect
     style="opacity:1;fill:#999999;fill-opacity:1;stroke:none;stroke-width:3;stroke-linecap:round;stroke-linejoin:round;stroke-miterlimit:4;stroke-dasharray:none;stroke-opacity:1"
     id="rect4176"
     width="2"
     height="6"
     x="8"
     y="0"
     rx="1"
     ry="1" />
  <rect
     ry="1"
     rx="1"
     y="0"
     x="12"
     height="6"
     width="2"
     id="rect4178"
     style="opacity:1;fill:#999999;fill-opacity:1;stroke:none;stroke-width:3;stroke-linecap:round;stroke-linejoin:round;stroke-miterlimit:4;stroke-dasharray:none;stroke-opacity:1" />
  <rect
     ry="1"
     rx="1"
     y="0"
     x="18"
     height="6"
     width="2"
     id="rect4182"
     style="opacity:1;fill:#999999;fill-opacity:1;stroke:none;stroke-width:3;stroke-linecap:round;stroke-linejoin:round;stroke-miterlimit:4;stroke-dasharray:none;stroke-opacity:1" />
  <rect
     style="opacity:1;fill:#999999;fill-opacity:1;stroke:none;stroke-width:3;stroke-linecap:round;stroke-linejoin:round;stroke-miterlimit:4;stroke-dasharray:none;stroke-opacity:1"
     id="rect4184"
     width="2"
     height="6"
     x="22"
     y="0"
     rx="1"
     ry="1" />
  <rect
     style="opacity:1;fill:#999999;fill-opacity:1;stroke:none;stroke-width:3;stroke-linecap:round;stroke-linejoin:round;stroke-miterlimit:4;stroke-dasharray:none;stroke-opacity:1"
     id="rect4194"
     width="16"
     height="2"
     x="8"
     y="10" />
  <rect
     y="14"
     x="8"
     height="2"
     width="16"
     id="rect4196"
     style="opacity:1;fill:#999999;fill-opacity:1;stroke:none;stroke-width:3;stroke-linecap:round;stroke-linejoin:round;stroke-miterlimit:4;stroke-dasharray:none;stroke-opacity:1" />
  <rect
     style="opacity:1;fill:#999999;fill-opacity:1;stroke:none;stroke-width:3;stroke-linecap:round;stroke-linejoin:round;stroke-miterlimit:4;stroke-dasharray:none;stroke-opacity:1"
     id="rect4198"
     width="16"
     height="2"
     x="8"
     y="18" />
  <rect
     y="22"
     x="8"
     height="2"
     width="16"
     id="rect4219"
     style="opacity:1;fill:#999999;fill-opacity:1;stroke:none;stroke-width:3;stroke-linecap:round;stroke-linejoin:round;stroke-miterlimit:4;stroke-dasharray:none;stroke-opacity:1" />
  <path
     style="fill:#dc322f;fill-opacity:1"
     d="M 32,25.499998 27.5,21 32,16.5 27.5,12 23,16.5 18.5,12 14,16.5 18.5,21 14,25.499998 18.5,30 23,25.499998 27.5,30 Z"
     id="path6"
     inkscape:connector-curvature="0" />
</svg>

<svg xmlns="http://www.w3.org/2000/svg" viewBox="0 0 32 32">
 <rect rx="4" y="2" x="4" height="28" width="24" style="fill:#e5e1c7;opacity:1;fill-opacity:1;stroke:none"/>
 <rect width="20" height="24" x="6" y="4" rx="2" style="fill:#eae7d1;opacity:1;fill-opacity:1;stroke:none"/>
 <rect width="2" height="6" x="8" rx="1" style="fill:#999;opacity:1;fill-opacity:1;stroke:none"/>
 <rect rx="1" x="12" height="6" width="2" style="fill:#999;opacity:1;fill-opacity:1;stroke:none"/>
 <rect rx="1" x="18" height="6" width="2" style="fill:#999;opacity:1;fill-opacity:1;stroke:none"/>
 <rect width="2" height="6" x="22" rx="1" style="fill:#999;opacity:1;fill-opacity:1;stroke:none"/>
 <rect width="16" height="2" x="8" y="10" style="fill:#999;opacity:1;fill-opacity:1;stroke:none"/>
 <rect y="14" x="8" height="2" width="16" style="fill:#999;opacity:1;fill-opacity:1;stroke:none"/>
 <rect width="16" height="2" x="8" y="18" style="fill:#999;opacity:1;fill-opacity:1;stroke:none"/>
 <rect y="22" x="8" height="2" width="16" style="fill:#999;opacity:1;fill-opacity:1;stroke:none"/>
 <path d="m 32 25.5 -4.5 -4.5 4.5 -4.5 -4.5 -4.5 -4.5 4.5 -4.5 -4.5 -4.5 4.5 4.5 4.5 -4.5 4.5 4.5 4.5 4.5 -4.5 4.5 4.5" style="fill:#dc322f;fill-opacity:1"/>
</svg>
